X:44
T:How Sweet in the Woodlands
N:page 25 on manuscript
M:3/4
L:1/8
K:F
V:1
C2 | F2 (AG)(AG) | F2 F2 G2 | A2 (cB)(cB) | {B}A4 AB | c2 (dc)(dc) | B2 {c}d2 z B | A2 (cB)(BA) | {A}G4 :||: A2 | G2 (GA)(GA) | B2 B2 c2{B} |
V:2
z2 | z6 | z2 z2 C2 | F2 (AG)(AG) | {G}F4 FG | A2 (BA)(BA) | G2 {A}B2 z G | F2 (AG)(GF) | C4 :||: F2 | C2 (CF)(CF) | G2 G2 A2{G} |
V:1
A2 (Ac)(dc) | c4 A2 | (TG>F/G//) F2 B2 | (TA>G/A//) G2 fc | G2 A2 (c/B/A/G/) | F4 z c | Hd2 B2 z B | A2 (GA)(Bc) | (f/d/c/B/) A2 TG2 | F4 |]
V:2
F2 (FA)(BA) | A4 F2 | C2 A,2 G2 | F2 C2 A2 | G2 F2 C2 | A,4 z A | HB2 G2 z G | F2 (CF)(GA) | (BA/G/) F2 C2 | A,4 |]

